src/main/resources/images/blendFile_dark.svg

<?xml version="1.0" encoding="UTF-8" standalone="no"?>
<!-- Copyright 2000-2025 JetBrains s.r.o. and contributors. Use of this source code is governed by the Apache 2.0 license. -->

<svg
   width="16"
   height="16"
   viewBox="0 0 16 16"
   fill="none"
   version="1.1"
   id="svg5"
   sodipodi:docname="blendFile_dark.svg"
   xml:space="preserve"
   inkscape:version="1.4.3 (0d15f75042, 2025-12-25)"
   xmlns:inkscape="http://www.inkscape.org/namespaces/inkscape"
   xmlns:sodipodi="http://sodipodi.sourceforge.net/DTD/sodipodi-0.dtd"
   xmlns="http://www.w3.org/2000/svg"
   xmlns:svg="http://www.w3.org/2000/svg"><defs
     id="defs5" /><sodipodi:namedview
     id="namedview5"
     pagecolor="#ffffff"
     bordercolor="#000000"
     borderopacity="0.25"
     inkscape:showpageshadow="2"
     inkscape:pageopacity="0.0"
     inkscape:pagecheckerboard="0"
     inkscape:deskcolor="#d1d1d1"
     inkscape:zoom="64"
     inkscape:cx="9.703125"
     inkscape:cy="8.3828125"
     inkscape:window-width="3440"
     inkscape:window-height="1366"
     inkscape:window-x="0"
     inkscape:window-y="44"
     inkscape:window-maximized="1"
     inkscape:current-layer="svg5" /><g
     style="fill:none"
     id="g6"
     transform="translate(0.00782501,0.015625)"><path
       d="m 10.992175,1.984375 c 0.5523,0 1,0.44772 1,1 v 6 h -6 c -0.55228,0 -1,0.44772 -1,1 v 4 c -0.55228,0 -1,-0.4477 -1,-1 v -7 h 2 c 1.10457,0 2,-0.89543 2,-2 v -2 z"
       fill="#45322b"
       id="path1-1" /><path
       d="m 6.992115,3.984315 c 0,0.06893 -0.00723,0.13617 -0.02051,0.20117 -0.09324,0.45569 -0.49624,0.79883 -0.97949,0.79883 h -1.58594 l 2.58594,-2.58594 z"
       fill="#45322b"
       id="path2-2" /><path
       fill-rule="evenodd"
       clip-rule="evenodd"
       d="m 10.992175,0.984375 c 1.1046,0 2,0.89543 2,2 v 6 h -1 v -6 c 0,-0.55228 -0.4477,-1 -1,-1 h -3 v 2 c 0,1.10457 -0.89543,2 -2,2 h -2 v 7 c 0,0.5523 0.44772,1 1,1 v 1 c -1.10457,0 -2,-0.8954 -2,-2 v -7.58594 c 4e-5,-0.26516 0.10547,-0.51953 0.29297,-0.70703 l 3.41406,-3.41406 c 0.1875,-0.1875 0.44187,-0.29293 0.70703,-0.29297 z m -6.58594,4 h 1.58594 c 0.55228,0 1,-0.44772 1,-1 v -1.58594 z"
       fill="#c77d55"
       id="path3-7" /><path
       id="path1305"
       d="m 243.13,-333.715 c 0.106,-1.891 1.032,-3.557 2.429,-4.738 1.37,-1.16 3.214,-1.869 5.226,-1.869 2.01,0 3.854,0.709 5.225,1.869 1.396,1.181 2.322,2.847 2.429,4.736 0.106,1.943 -0.675,3.748 -2.045,5.086 -1.397,1.361 -3.384,2.215 -5.609,2.215 -2.225,0 -4.216,-0.854 -5.612,-2.215 -1.371,-1.338 -2.15,-3.143 -2.043,-5.084 z"
       style="clip-rule:evenodd;fill-rule:nonzero;stroke-linejoin:round;stroke-miterlimit:2;fill:#ffffff"
       transform="matrix(0.29936344,0,0,0.299363,-63.802823,112.65251)"
       inkscape:label="blend_sclera" /><path
       id="path1309"
       d="m 243.13,-333.715 c 0.106,-1.891 1.032,-3.557 2.429,-4.738 1.37,-1.16 3.214,-1.869 5.226,-1.869 2.01,0 3.854,0.709 5.225,1.869 1.396,1.181 2.322,2.847 2.429,4.736 0.106,1.943 -0.675,3.748 -2.045,5.086 -1.397,1.361 -3.384,2.215 -5.609,2.215 -2.225,0 -4.216,-0.854 -5.612,-2.215 -1.371,-1.338 -2.15,-3.143 -2.043,-5.084 z"
       style="clip-rule:evenodd;fill-rule:nonzero;stroke-linejoin:round;stroke-miterlimit:2;fill:#265787"
       transform="matrix(0.14616791,0,0,0.14616791,-25.38382,61.581951)"
       inkscape:label="blend_eye" /><path
       id="path1313"
       d="m 230.94,-329.894 c 0.013,0.74 0.249,2.178 0.603,3.301 0.744,2.377 2.006,4.576 3.762,6.514 1.802,1.992 4.021,3.592 6.584,4.728 2.694,1.193 5.613,1.801 8.645,1.796 3.027,-0.004 5.946,-0.624 8.64,-1.826 2.563,-1.147 4.78,-2.754 6.579,-4.747 1.755,-1.946 3.015,-4.149 3.761,-6.526 0.375,-1.201 0.612,-2.42 0.707,-3.643 0.093,-1.205 0.054,-2.412 -0.117,-3.618 -0.334,-2.35 -1.147,-4.555 -2.399,-6.565 -1.145,-1.847 -2.621,-3.464 -4.376,-4.825 l 0.004,-0.003 -17.711,-13.599 c -0.016,-0.012 -0.029,-0.025 -0.046,-0.036 -1.162,-0.892 -3.116,-0.889 -4.394,0.005 -1.292,0.904 -1.44,2.399 -0.29,3.342 l -0.005,0.005 7.387,6.007 -22.515,0.024 h -0.03 c -1.861,0.002 -3.65,1.223 -4.004,2.766 -0.364,1.572 0.9,2.876 2.835,2.883 l -0.003,0.007 11.412,-0.022 -20.364,15.631 c -0.026,0.019 -0.054,0.039 -0.078,0.058 -1.921,1.471 -2.542,3.917 -1.332,5.465 1.228,1.574 3.839,1.577 5.78,0.009 l 11.114,-9.096 c 0,0 -0.162,1.228 -0.149,1.965 z m 28.559,4.112 c -2.29,2.333 -5.496,3.656 -8.965,3.663 -3.474,0.006 -6.68,-1.305 -8.97,-3.634 -1.119,-1.135 -1.941,-2.441 -2.448,-3.832 -0.497,-1.367 -0.69,-2.818 -0.562,-4.282 0.121,-1.431 0.547,-2.796 1.227,-4.031 0.668,-1.214 1.588,-2.311 2.724,-3.239 2.226,-1.814 5.06,-2.796 8.024,-2.8 2.967,-0.004 5.799,0.969 8.027,2.777 1.134,0.924 2.053,2.017 2.721,3.229 0.683,1.234 1.106,2.594 1.232,4.029 0.126,1.462 -0.067,2.911 -0.564,4.279 -0.508,1.395 -1.327,2.701 -2.446,3.841 z"
       style="clip-rule:evenodd;fill-rule:nonzero;stroke-linejoin:round;stroke-miterlimit:2;fill:#e87d0d"
       transform="matrix(0.14616791,0,0,0.14616791,-25.38382,61.581951)"
       inkscape:label="blend_fingers" /></g></svg>

<svg width="64" height="64" viewBox="0 0 64 64" fill="none" xmlns="http://www.w3.org/2000/svg">
    <path d="M11 2C11.5523 2 12 2.44772 12 3V9H6C5.44772 9 5 9.44772 5 10V14C4.44772 14 4 13.5523 4 13V6H6C7.10457 6 8 5.10457 8 4V2H11Z" fill="#45322B"/>
    <path d="M7 4C7 4.06893 6.99277 4.13617 6.97949 4.20117C6.88625 4.65686 6.48325 5 6 5H4.41406L7 2.41406V4Z" fill="#45322B"/>
    <path fill-rule="evenodd" clip-rule="evenodd" d="M11 1C12.1046 1 13 1.89543 13 3V9H12V3C12 2.44772 11.5523 2 11 2H8V4C8 5.10457 7.10457 6 6 6H4V13C4 13.5523 4.44772 14 5 14V15C3.89543 15 3 14.1046 3 13V5.41406C3.00004 5.1489 3.10547 4.89453 3.29297 4.70703L6.70703 1.29297C6.89453 1.10547 7.1489 1.00004 7.41406 1H11ZM4.41406 5H6C6.55228 5 7 4.55228 7 4V2.41406L4.41406 5Z" fill="#C77D55"/>
    <!-- Nested Blender Logo -->
    <g transform="translate(11, 13) scale(0.07)">
        <!-- Outer Ring/Fingers -->
        <path d="M51.2,2.8 C49.6,1.4 47.4,-2.4 49.9,-4.9 C52.4,-7.3 55.4,-6.3 57.5,-4.7 C60.6,-2.4 85.8,17.4 88.8,19.7 C96.4,25.7 101.3,34.7 101.3,44.7 C101.3,62.7 85.6,77.3 66.2,77.3 C46.8,77.3 31.1,62.7 31.1,44.7 C31.1,44.6 31.1,44.5 31.1,44.5 C31.1,44.5 16,57.1 11.6,60.7 C7.6,63.9 3.7,63.6 1.4,60.6 C-0.4,58.2 -0.2,53.8 4.6,50.1 C11.7,44.5 40.1,22.4 40.1,22.4 C40.1,22.4 25.9,22.5 21.6,22.5 C16.1,22.5 14.8,19.7 14.8,17.2 C14.8,14.7 17.9,12.3 22,12.2 C29.9,12.1 62.1,12.2 62.1,12.2 C62.1,12.2 53.9,5.2 51.2,2.8 Z M66.2,20.7 C80.4,20.7 91.9,31.4 91.9,44.7 C91.9,57.9 80.4,68.6 66.2,68.6 C52,68.6 40.4,57.9 40.4,44.7 C40.4,31.4 52,20.7 66.2,20.7 Z" fill="#C77D55" transform="translate(-66.2, -44.7)"/>
        <!-- Inner White -->
        <ellipse cx="0" cy="0" rx="25.8" ry="19.2" fill="#FFFFFF"/>
        <!-- Pupil -->
        <ellipse cx="0" cy="0" rx="14.4" ry="11.4" fill="#265787"/>
    </g>
</svg>
